X:1
T:[ID 1-125]
T:[ID 1-125]
T:Bezeichnung standardisiert: Menuett Men\"uet
T:Urheber unbekannt Datum in der hier transkribierten schriftlichen Quelle: vermutlich vor 1767
C:Urheber unbekannt
C:Datum in der hier transkribierten schriftlichen Quelle: vermutlich vor 1767
L:1/8
M:none
K:D
V:1 treble 
V:1
 D2 FD A2 | F2 AF d2 | A2 dA (f/g/)a | g4 f2 | ef^gabg | e2 d2 c2 | BdcBA^G | A6 :: ag f2 g2 | %9
 a2 A,2 a2 | gf e2 f2 | g2 A,2 f2 | gebged | Tc4 d2 | (3BAG F2 E2 | D6 :| %16

